img/icons/svg/letter__icon.svg

<svg width="15" height="16" viewBox="0 0 15 16" fill="none" xmlns="http://www.w3.org/2000/svg">
<g clip-path="url(#clip0)">
<path d="M10.5801 5.73734C10.5801 4.03885 9.1983 2.65698 7.49979 2.65698C5.80128 2.65698 4.41943 4.03883 4.41943 5.73734C4.41943 7.43585 5.80128 8.81769 7.49979 8.81769C9.1983 8.81769 10.5801 7.43582 10.5801 5.73734ZM4.85807 5.73734C4.85807 4.28067 6.04315 3.09561 7.49979 3.09561C8.95643 3.09561 10.1415 4.28067 10.1415 5.73734C10.1415 7.194 8.95643 8.37906 7.49979 8.37906C6.04315 8.37906 4.85807 7.19397 4.85807 5.73734Z" fill="white"/>
<path d="M7.60426 7.05424L7.85528 6.7823C7.9374 6.69327 7.9318 6.55455 7.84277 6.4724C7.75374 6.39031 7.61502 6.39591 7.53287 6.48491L7.28197 6.7567C7.23729 6.8051 7.17386 6.83396 7.10713 6.83586L7.10091 6.83595C7.03667 6.83595 6.97588 6.81137 6.92967 6.76669L6.15404 6.01704C6.05633 5.92262 6.05367 5.76629 6.14809 5.66858C6.24255 5.57091 6.3989 5.56824 6.49661 5.66264L6.92962 6.08111C6.97207 6.12216 7.0289 6.14434 7.08826 6.14267C7.14726 6.14097 7.2031 6.1156 7.24315 6.07221L8.49386 4.71761C8.53848 4.66927 8.5993 4.64117 8.66508 4.63856C8.73096 4.63575 8.79372 4.65907 8.84206 4.70369C8.9419 4.79589 8.94814 4.95213 8.85594 5.05197L8.22662 5.73356C8.14444 5.82257 8.14998 5.96129 8.23898 6.04347C8.32799 6.12561 8.46674 6.12008 8.54888 6.0311L9.17821 5.34951C9.43447 5.07201 9.41716 4.63771 9.13963 4.38143C9.00518 4.25729 8.83046 4.19305 8.64761 4.20025C8.46474 4.20755 8.2957 4.2856 8.1716 4.42004L7.07311 5.60976L6.80144 5.34723C6.52983 5.0847 6.09527 5.09217 5.83277 5.36372C5.57027 5.63527 5.57765 6.06986 5.84926 6.33236L6.62487 7.08201C6.75328 7.20614 6.92235 7.27449 7.10097 7.27449C7.10777 7.27449 7.11454 7.2744 7.12049 7.2742C7.30368 7.26907 7.48002 7.18886 7.60426 7.05424Z" fill="white"/>
<path d="M14.9998 5.73294C14.9992 5.70156 14.9899 5.66333 14.9752 5.63535C14.9628 5.61165 14.9457 5.59064 14.9256 5.57295C14.9116 5.56059 14.8951 5.54925 14.8783 5.5409C14.8742 5.53885 12.961 4.58746 12.961 4.58746V2.55281C12.961 2.4994 12.9415 2.44784 12.9062 2.40776L11.3028 0.588916C11.2611 0.541719 11.2012 0.514648 11.1383 0.514648H2.59633C2.289 0.514648 2.03898 0.764669 2.03898 1.07197V4.58746C2.03898 4.58746 0.120147 5.54181 0.119385 5.54222C0.0890042 5.55783 0.0594436 5.58338 0.0396388 5.61174C0.0153223 5.64654 0.00117188 5.69008 0.000234376 5.73238C0.000205079 5.73382 0 11.1804 0 11.1804C0 11.3016 0.0982035 11.3997 0.219317 11.3997C0.340431 11.3997 0.438635 11.3016 0.438635 11.1804V6.22202C0.438635 6.22202 2.11334 7.69393 2.11354 7.69411L6.07268 11.1738L0.438605 14.8607V12.185C0.438605 12.0638 0.340402 11.9657 0.219288 11.9657C0.0981742 11.9657 0 12.0639 0 12.185V15.2663C0 15.3837 0.10084 15.4856 0.219317 15.4856H0.359562C0.359562 15.4856 14.7683 15.4856 14.7807 15.4856C14.8117 15.4856 14.8426 15.478 14.8708 15.4653C14.8894 15.4569 14.907 15.4462 14.9227 15.433C14.9712 15.3921 15 15.3295 15 15.2663C15 15.2663 14.9998 5.73417 14.9998 5.73294ZM2.03898 7.04463L0.609465 5.78822L2.03901 5.07733V7.04463H2.03898ZM12.961 5.07733L14.3906 5.78822L12.961 7.04465V5.07733ZM11.3576 1.31437L12.0401 2.0886L12.256 2.33352H11.4307C11.3904 2.33352 11.3576 2.30068 11.3576 2.26034V1.31437H11.3576ZM2.47762 7.43014V1.07197C2.47762 1.00652 2.53088 0.953254 2.59633 0.953254H10.919V2.26031C10.919 2.54253 11.1486 2.77213 11.4307 2.77213H12.5224V7.43012L9.14092 10.4021L8.54649 10.9245L7.85842 10.4743C7.64074 10.3318 7.35937 10.3317 7.14161 10.4743L6.45354 10.9245L2.47762 7.43014ZM0.954965 15.047L7.38179 10.8413C7.45359 10.7943 7.54638 10.7943 7.61821 10.8413L14.0451 15.047H0.954965ZM14.5614 14.8607L8.92735 11.1738L9.08837 11.0323L14.5614 6.22202V14.8607H14.5614Z" fill="white"/>
</g>
<defs>
<clipPath id="clip0">
<rect width="15" height="15" fill="white" transform="translate(0 0.5)"/>
</clipPath>
</defs>
</svg>

<svg width="15" height="16" viewBox="0 0 15 16" fill="none" xmlns="http://www.w3.org/2000/svg"><g clip-path="url(#clip0)" fill="#fff"><path d="M10.58 5.737a3.084 3.084 0 00-3.08-3.08 3.084 3.084 0 00-3.08 3.08 3.084 3.084 0 003.08 3.08 3.084 3.084 0 003.08-3.08zm-5.722 0A2.645 2.645 0 017.5 3.096a2.645 2.645 0 012.642 2.641A2.645 2.645 0 017.5 8.38a2.645 2.645 0 01-2.642-2.642z"/><path d="M7.604 7.054l.251-.272a.22.22 0 00-.322-.297l-.251.272a.248.248 0 01-.175.079h-.006a.245.245 0 01-.171-.07l-.776-.749a.247.247 0 01.343-.354l.433.418a.219.219 0 00.313-.009l1.25-1.354a.245.245 0 01.35-.014.247.247 0 01.013.348l-.63.682a.22.22 0 10.323.297l.63-.681a.686.686 0 00-1.007-.93L7.073 5.61l-.272-.263a.686.686 0 00-.952.985l.776.75a.682.682 0 00.98-.028z"/><path d="M15 5.733a.219.219 0 00-.122-.192l-1.917-.954V2.553a.22.22 0 00-.055-.145L11.303.588a.22.22 0 00-.165-.073H2.596a.558.558 0 00-.557.557v3.515l-1.92.955a.223.223 0 00-.12.19L0 11.18a.22.22 0 10.439 0V6.222l1.675 1.472 3.959 3.48L.439 14.86v-2.676a.22.22 0 10-.439 0v3.081c0 .118.1.22.22.22h14.56a.221.221 0 00.22-.22V5.733zM2.039 7.045L.609 5.788l1.43-.71v1.967zm10.922-1.968l1.43.711-1.43 1.257V5.077zm-1.603-3.763l.682.775.216.245h-.825a.073.073 0 01-.073-.074v-.946zM2.478 7.43V1.072a.12.12 0 01.118-.119h8.323V2.26c0 .283.23.512.512.512h1.091V7.43l-3.381 2.972-.595.523-.688-.45a.654.654 0 00-.716 0l-.688.45L2.478 7.43zM.955 15.047l6.427-4.206a.216.216 0 01.236 0l6.427 4.206H.955zm13.606-.186l-5.634-3.687.161-.142 5.473-4.81v8.639z"/></g><defs><clipPath id="clip0"><path fill="#fff" transform="translate(0 .5)" d="M0 0h15v15H0z"/></clipPath></defs></svg>
